X: 1
T: Paddy Mills' Fancy
M: 4/4
L: 1/8
D: 1991 Gort session recording
K: G
DG G/G/G GBAG|FGAB cABc|d2 eg fdcA|GBAF GFEF|
DG G/G/G GBAG|FGAB cABc|d2 e/f/g fdcA|1 AGFA G2 GE:|2 AGFA GABd||
g/g/g dg gfdc|BG G/G/G FGAB|(3cdc AB dcAG|FGAB cdef|
(3gag dg gfdc|BG G/G/G FGAB|(3cdc AB dcAG|1 FGAF GABd:|2 FGAF G2 GE||
